app/assets/images/icons/active/arrow-up.svg

<?xml version="1.0" encoding="UTF-8" standalone="no"?>
<svg width="32px" height="232px" viewBox="0 0 32 232" version="1.1" xmlns="http://www.w3.org/2000/svg" xmlns:xlink="http://www.w3.org/1999/xlink" xmlns:sketch="http://www.bohemiancoding.com/sketch/ns">
    <title>arrow-up</title>
    <description>Created with Sketch (http://www.bohemiancoding.com/sketch)</description>
    <defs></defs>
    <g id="Functions" stroke="none" stroke-width="1" fill="none" fill-rule="evenodd" sketch:type="MSPage">
        <path d="M17.7020655,124.709013 L26.301443,133.403013 C27.2328692,134.346013 27.2328692,135.877013 26.301443,136.819013 C25.369028,137.764013 23.8552133,137.764013 22.9257646,136.819013 L18.4535346,132.299013 L18.4535346,146.585013 C18.4535346,147.916013 17.3856574,149.000013 16.0666314,149.000013 C14.7416727,149.000013 13.6757731,147.916013 13.6757731,146.585013 L13.6757731,132.169013 L9.07401349,136.819013 C8.14851994,137.764013 6.63272763,137.764013 5.69932389,136.819013 C4.76690892,135.877013 4.76690892,134.346013 5.69932389,133.403013 L14.2977126,124.709013 C14.7663921,124.232013 15.3843765,123.998013 16.0003834,124.000013 C16.613424,123.998013 17.2314085,124.232013 17.7020655,124.709013" id="arrow-up--lp-blue" fill="#206FAC" sketch:type="MSShapeGroup"></path>
        <path d="M17.7020655,84.7090127 L26.301443,93.4030127 C27.2328692,94.3460127 27.2328692,95.8770127 26.301443,96.8190127 C25.369028,97.7640127 23.8552133,97.7640127 22.9257646,96.8190127 L18.4535346,92.2990127 L18.4535346,106.585013 C18.4535346,107.916013 17.3856574,109.000013 16.0666314,109.000013 C14.7416727,109.000013 13.6757731,107.916013 13.6757731,106.585013 L13.6757731,92.1690127 L9.07401349,96.8190127 C8.14851994,97.7640127 6.63272763,97.7640127 5.69932389,96.8190127 C4.76690892,95.8770127 4.76690892,94.3460127 5.69932389,93.4030127 L14.2977126,84.7090127 C14.7663921,84.2320127 15.3843765,83.9980127 16.0003834,84.0000127 C16.613424,83.9980127 17.2314085,84.2320127 17.7020655,84.7090127" id="arrow-up--white" fill="#FFFFFF" sketch:type="MSShapeGroup"></path>
        <path d="M17.7020655,44.7090127 L26.301443,53.4030127 C27.2328692,54.3460127 27.2328692,55.8770127 26.301443,56.8190127 C25.369028,57.7640127 23.8552133,57.7640127 22.9257646,56.8190127 L18.4535346,52.2990127 L18.4535346,66.5850127 C18.4535346,67.9160127 17.3856574,69.0000127 16.0666314,69.0000127 C14.7416727,69.0000127 13.6757731,67.9160127 13.6757731,66.5850127 L13.6757731,52.1690127 L9.07401349,56.8190127 C8.14851994,57.7640127 6.63272763,57.7640127 5.69932389,56.8190127 C4.76690892,55.8770127 4.76690892,54.3460127 5.69932389,53.4030127 L14.2977126,44.7090127 C14.7663921,44.2320127 15.3843765,43.9980127 16.0003834,44.0000127 C16.613424,43.9980127 17.2314085,44.2320127 17.7020655,44.7090127" id="arrow-up--body-grey" fill="#67737B" sketch:type="MSShapeGroup"></path>
        <path d="M17.7020655,4.70901271 L26.301443,13.4030127 C27.2328692,14.3460127 27.2328692,15.8770127 26.301443,16.8190127 C25.369028,17.7640127 23.8552133,17.7640127 22.9257646,16.8190127 L18.4535346,12.2990127 L18.4535346,26.5850127 C18.4535346,27.9160127 17.3856574,29.0000127 16.0666314,29.0000127 C14.7416727,29.0000127 13.6757731,27.9160127 13.6757731,26.5850127 L13.6757731,12.1690127 L9.07401349,16.8190127 C8.14851994,17.7640127 6.63272763,17.7640127 5.69932389,16.8190127 C4.76690892,15.8770127 4.76690892,14.3460127 5.69932389,13.4030127 L14.2977126,4.70901271 C14.7663921,4.23201271 15.3843765,3.99801271 16.0003834,4.00001271 C16.613424,3.99801271 17.2314085,4.23201271 17.7020655,4.70901271" id="arrow-up--title-grey" fill="#3A434E" sketch:type="MSShapeGroup"></path>
    </g>
</svg>

<svg width="32" height="232" viewBox="0 0 32 232" xmlns="http://www.w3.org/2000/svg" xmlns:sketch="http://www.bohemiancoding.com/sketch/ns"><title>arrow-up</title><g sketch:type="MSPage" fill="none"><path d="M17.702 124.709l8.599 8.694c.931.943.931 2.474 0 3.416-.932.945-2.446.945-3.376 0l-4.472-4.52v14.286c0 1.331-1.068 2.415-2.387 2.415-1.325 0-2.391-1.084-2.391-2.415v-14.416l-4.602 4.65c-.925.945-2.441.945-3.375 0-.932-.942-.932-2.473 0-3.416l8.598-8.694c.469-.477 1.087-.711 1.703-.709.613-.002 1.231.232 1.702.709" fill="#206FAC" sketch:type="MSShapeGroup"/><path d="M17.702 84.709l8.599 8.694c.931.943.931 2.474 0 3.416-.932.945-2.446.945-3.376 0l-4.472-4.52v14.286c0 1.331-1.068 2.415-2.387 2.415-1.325 0-2.391-1.084-2.391-2.415v-14.416l-4.602 4.65c-.925.945-2.441.945-3.375 0-.932-.942-.932-2.473 0-3.416l8.598-8.694c.469-.477 1.087-.711 1.703-.709.613-.002 1.231.232 1.702.709" fill="#fff" sketch:type="MSShapeGroup"/><path d="M17.702 44.709l8.599 8.694c.931.943.931 2.474 0 3.416-.932.945-2.446.945-3.376 0l-4.472-4.52v14.286c0 1.331-1.068 2.415-2.387 2.415-1.325 0-2.391-1.084-2.391-2.415v-14.416l-4.602 4.65c-.925.945-2.441.945-3.375 0-.932-.942-.932-2.473 0-3.416l8.598-8.694c.469-.477 1.087-.711 1.703-.709.613-.002 1.231.232 1.702.709" fill="#67737B" sketch:type="MSShapeGroup"/><path d="M17.702 4.709l8.599 8.694c.931.943.931 2.474 0 3.416-.932.945-2.446.945-3.376 0l-4.472-4.52v14.286c0 1.331-1.068 2.415-2.387 2.415-1.325 0-2.391-1.084-2.391-2.415v-14.416l-4.602 4.65c-.925.945-2.441.945-3.375 0-.932-.942-.932-2.473 0-3.416l8.598-8.694c.469-.477 1.087-.711 1.703-.709.613-.002 1.231.232 1.702.709" fill="#3A434E" sketch:type="MSShapeGroup"/></g></svg>
